X: 2
T: Jenny Picking Cockles
R: reel
M: 4/4
L: 1/8
K: Dmix
|:AD (3DDD FGAB|CAGE CDEG|AD (3DDD FGAB|~c3 e dcAG|AD (3DDD FGAB|CAGE CDEG|AD (3DDD FGAB|cAGE D3 G:||:Ad~d2 Adfd|ec~c2 Gcec|Ad~d2 Adfd|ed^cd edd^c|Ad~d2 Adfd|ec~c2 efge|a3 g ed^cd|eaag eddB:|


Tune 1357	Setting 27336

